X:3280
T:Killour House
O:england
R:reel
C:Ed Reavy
M:2/2
L:1/8
N:The home of Matty and Bridie Murphy
N:in the Neale (County Mayo). Ed visited there
N:in '69 with Joe and his wife Mary Jo,
N:(niece of the Murphys). The house was
N:traditionally Irish: no hot water,
N:no "fancy plumbing," only a full
N:measure of love and genuine
N:Irish hospitality. The Murphys follow the
N:simple life and this left us
N:with fond memories long
N:after we returned to the States.
N:May Killour House live
N:on in this traditional tune
N:dedicated to them by Ed.
K:G
dc|BGFG Bdgd|BGFG cAFA|B^cdf e=ceg|fafd =cAFA|
(3B^cd AF GDB,D|G,B,DG Bdeg|(3fga fd cAFA|GBAF G2:||
ga|bagf gdBd|cBcA FGAF|GBdB ceag|fgfd ^cdef|
gbaf gdBd|cBcA FGAF|GABd cAfA|GBAF G2 ga||
bagf fdBd|cBcA FGAc|BcdB ceag|(3fga e^c d2 ef|
(3gfg bg dBGB|cBcA FGAF|GABc (3dcB (3cBA|GBAF G2||
